assets/icons/short_bed.svg

<svg fill="none" height="48" viewBox="0 0 101 48" width="101" xmlns="http://www.w3.org/2000/svg"><linearGradient id="a" gradientUnits="userSpaceOnUse" x1="50.5105" x2="50.5105" y1="0" y2="48.0002"><stop offset="0" stop-color="#c4c4c4"/><stop offset=".0001" stop-color="#18a0fb"/><stop offset="1" stop-color="#426bff"/></linearGradient><path d="m97.9038 33.0785c0 .3755-.1479.7356-.4112 1.0011s-.6205.4146-.9929.4146h-95.09556c-.3724 0-.729548-.1491-.992876-.4146s-.411264-.6256-.411264-1.0011v-9.7755c0-.3755.147936-.7356.411264-1.0011s.620476-.4147.992876-.4147h95.07456c.3724 0 .7295.1492.9928.4147.2634.2655.4113.6256.4113 1.0011zm-1.4041 2.2793h-95.09556c-.3724 0-.729548.1492-.992876.4147s-.411264.6256-.411264 1.001v9.7685c0 .3755.147936.7356.411264 1.0011s.620476.4146.992876.4146h1.10225v-7.2343c0-.3755.14794-.7356.41127-1.0011s.62048-.4146.99288-.4146h90.06176c.3724 0 .7295.1491.9928.4146.2634.2655.4113.6256.4113 1.0011v7.2768h1.0812c.3724 0 .7295-.1492.9929-.4147.2633-.2655.4112-.6255.4112-1.001v-9.7756c.0001-.3718-.145-.7287-.4038-.9936-.2587-.2649-.6105-.4165-.9792-.4221zm4.5213-34.18256c0-.15611-.031-.310666-.091-.454631-.06-.143966-.147-.274457-.258-.383853-.11-.109395-.241-.195501-.385-.2532884-.144-.0577872-.2976-.086097-.4525-.08327568-.1536-.00093318-.3059.02877158-.4481.08740538-.1422.0586337-.2715.1450397-.3805.2542457s-.1954.239058-.2544.382084c-.059.143027-.0894.296403-.0894.451313v45.64286c0 .3135.1235.6142.3434.8359s.5181.3462.829.3462c.3095-.0019.6065-.1272.8245-.3487s.341-.5211.341-.8334zm-23.7229 9.26586c-9.829 4.1693-12.0055 10.5684-9.7518 10.5684h11.4297c13.6693 0 18.4013-6.6044 18.4013-8.282 0-4.09849-9.6184-6.70342-20.0792-2.2864z" fill="url(#a)"/></svg>

<svg width="101" height="48" viewBox="0 0 101 48" fill="none" xmlns="http://www.w3.org/2000/svg">
<path d="M97.9038 33.0785C97.9038 33.454 97.7559 33.8141 97.4926 34.0796C97.2293 34.3451 96.8721 34.4942 96.4997 34.4942H1.40414C1.03174 34.4942 0.674592 34.3451 0.411264 34.0796C0.147936 33.8141 0 33.454 0 33.0785V23.303C0 22.9275 0.147936 22.5674 0.411264 22.3019C0.674592 22.0364 1.03174 21.8872 1.40414 21.8872H96.4787C96.8511 21.8872 97.2082 22.0364 97.4715 22.3019C97.7349 22.5674 97.8828 22.9275 97.8828 23.303L97.9038 33.0785ZM96.4997 35.3578H1.40414C1.03174 35.3578 0.674592 35.507 0.411264 35.7725C0.147936 36.038 0 36.3981 0 36.7735L0 46.542C0 46.9175 0.147936 47.2776 0.411264 47.5431C0.674592 47.8086 1.03174 47.9577 1.40414 47.9577H2.50639V40.7234C2.50639 40.3479 2.65433 39.9878 2.91766 39.7223C3.18099 39.4568 3.53814 39.3077 3.91054 39.3077H93.9723C94.3447 39.3077 94.7018 39.4568 94.9651 39.7223C95.2285 39.9878 95.3764 40.3479 95.3764 40.7234V48.0002H96.4576C96.83 48.0002 97.1871 47.851 97.4505 47.5855C97.7138 47.32 97.8617 46.96 97.8617 46.5845V36.8089C97.8618 36.4371 97.7167 36.0802 97.4579 35.8153C97.1992 35.5504 96.8474 35.3988 96.4787 35.3932L96.4997 35.3578ZM101.021 1.17524C101.021 1.01913 100.99 0.864574 100.93 0.720609C100.87 0.576643 100.783 0.446152 100.672 0.336756C100.562 0.227361 100.431 0.141255 100.287 0.0834676C100.143 0.0256804 99.9894 -0.0026294 99.8345 0.00019192C99.6809 -0.000741255 99.5286 0.0289635 99.3864 0.0875973C99.2442 0.146231 99.1149 0.232637 99.0059 0.341843C98.8969 0.451049 98.8105 0.580901 98.7515 0.723927C98.6925 0.866954 98.6621 1.02033 98.6621 1.17524V46.8181C98.6621 47.1316 98.7856 47.4323 99.0055 47.654C99.2254 47.8757 99.5236 48.0002 99.8345 48.0002C100.144 47.9983 100.441 47.873 100.659 47.6515C100.877 47.43 101 47.1304 101 46.8181L101.021 1.17524ZM77.2981 10.4411C67.4691 14.6104 65.2926 21.0095 67.5463 21.0095H78.976C92.6453 21.0095 97.3773 14.4051 97.3773 12.7275C97.3773 8.62901 87.7589 6.02408 77.2981 10.4411Z" fill="url(#paint0_linear_656_7707)"/>
<defs>
<linearGradient id="paint0_linear_656_7707" x1="50.5105" y1="0" x2="50.5105" y2="48.0002" gradientUnits="userSpaceOnUse">
<stop stop-color="#C4C4C4"/>
<stop offset="0.0001" stop-color="#18A0FB"/>
<stop offset="1" stop-color="#426BFF"/>
</linearGradient>
</defs>
</svg>
